svg/fluentui-system-icons/ic_fluent_syringe_20_regular.svg

<svg width="20" height="20" viewBox="0 0 20 20" fill="none" xmlns="http://www.w3.org/2000/svg">
<path d="M14.1464 2.14645C14.3417 1.95118 14.6583 1.95118 14.8536 2.14645L17.8536 5.14645C18.0488 5.34171 18.0488 5.65829 17.8536 5.85355C17.6583 6.04882 17.3417 6.04882 17.1464 5.85355L16.75 5.45711L14.9571 7.25L16.8536 9.14645C17.0488 9.34171 17.0488 9.65829 16.8536 9.85355C16.6583 10.0488 16.3417 10.0488 16.1464 9.85355L15 8.70711L9.43934 14.2678C8.9705 14.7366 8.33461 15 7.67157 15H5.70711L2.85355 17.8536C2.65829 18.0488 2.34171 18.0488 2.14645 17.8536C1.95118 17.6583 1.95118 17.3417 2.14645 17.1464L5 14.2929V12.3284C5 11.6654 5.26339 11.0295 5.73223 10.5607L11.2929 5L10.1464 3.85355C9.95118 3.65829 9.95118 3.34171 10.1464 3.14645C10.3417 2.95118 10.6583 2.95118 10.8536 3.14645L12.75 5.04289L14.5429 3.25L14.1464 2.85355C13.9512 2.65829 13.9512 2.34171 14.1464 2.14645ZM10 7.70711L9.20711 8.5L9.85355 9.14645C10.0488 9.34171 10.0488 9.65829 9.85355 9.85355C9.65829 10.0488 9.34171 10.0488 9.14645 9.85355L8.5 9.20711L7.70711 10L8.35355 10.6464C8.54882 10.8417 8.54882 11.1583 8.35355 11.3536C8.15829 11.5488 7.84171 11.5488 7.64645 11.3536L7 10.7071L6.43934 11.2678C6.15804 11.5491 6 11.9306 6 12.3284V14H7.67157C8.0694 14 8.45093 13.842 8.73223 13.5607L14.2929 8L12 5.70711L10.7071 7L11.3536 7.64645C11.5488 7.84171 11.5488 8.15829 11.3536 8.35355C11.1583 8.54882 10.8417 8.54882 10.6464 8.35355L10 7.70711ZM16.0429 4.75L15.25 3.95711L13.4571 5.75L14.25 6.54289L16.0429 4.75Z" fill="#212121"/>
</svg>

<svg xmlns="http://www.w3.org/2000/svg" width="20" height="20"><path d="M14.146 2.146a.5.5 0 0 1 .708 0l3 3a.5.5 0 0 1-.708.708l-.396-.397-1.793 1.793 1.897 1.896a.5.5 0 0 1-.708.708L15 8.707l-5.56 5.56A2.5 2.5 0 0 1 7.671 15H5.707l-2.853 2.854a.5.5 0 0 1-.708-.708L5 14.293v-1.965a2.5 2.5 0 0 1 .732-1.767L11.292 5l-1.146-1.146a.5.5 0 0 1 .708-.708l1.896 1.897 1.793-1.793-.397-.396a.5.5 0 0 1 0-.708ZM10 7.707l-.793.793.647.646a.5.5 0 0 1-.708.708L8.5 9.207 7.707 10l.647.646a.5.5 0 0 1-.708.708L7 10.707l-.56.56A1.5 1.5 0 0 0 6 12.329V14h1.672a1.5 1.5 0 0 0 1.06-.44L14.292 8 12 5.707 10.707 7l.647.646a.5.5 0 0 1-.708.708L10 7.707Zm6.043-2.957-.793-.793-1.793 1.793.793.793 1.793-1.793Z"/></svg>
